X:1
T:Title
%%score { ( 1 3 ) | 2 }
L:1/8
Q:1/4=90
M:6/8
K:F
V:1 treble nm="Grand Piano"
V:3 treble 
V:2 bass 
V:1
 FFF FGA | c3 c3 | AGF [Ec][EB][EG] | F3 C3 | FFF FGA | c3 c3 | AGF [Ec][EB][EG] | F6 | %8
w: W.~H.~Doane * * * * *||||||||
 [DF][Fd][Fd] [Fd][Fe][Fd] | [Fd]3 [Fc]3 | [^FA][Fc][Fc] [Fc][Fd][DFc] | [DAc]3 [DGB]3 | %12
w: ||||
 [DGB][CGB][CGB] [CGB][CFA][CEG] | [CFc]3 [DFB]3 | [CFA][B,EG][A,F] [Ec][EB]G | F6 | A3 F3 | %17
w: |||||
 [Ac]3 [FA]3 | [EG][FA][GB] [Ed]2 [Ec] | [Fc]3 [FA]3 | [Fd]3 [Ff]3 | c3 A3 | G3 G3 | [EG]6 | %24
w: |||||||
 AGF [Ac]2 [Bd] | [Ac]3 [FA]3 | [GB][FA][EG] [Ed]2 [Ee] | [Fd]3 [Fc]3 | [Fd]3 [Ff]3 | %29
w: |||||
 [Fc]3 [CFA]3 | [CFA][B,EG][A,F] [Ec][EB][EG] | [CF]6 |] %32
w: |||
V:2
 [F,A,C][F,A,C][F,A,C] [F,A,C][F,B,C][F,CF] | [F,A,F]3 [F,A,F]3 | %2
 [F,CF][F,B,E][F,A,] [C,G,][C,G,][C,B,] | [F,A,C]3 [F,A,]3 | %4
 [F,A,C][F,A,C][F,A,C] [F,A,C][F,B,C][F,CF] | [F,A,F]3 [F,A,F]3 | %6
 [F,CF][F,B,E][F,A,] [C,G,][C,G,][C,B,] | [F,A,]6 | [B,,B,][B,,B,][B,,B,] [B,,B,][B,,C][D,A,] | %9
 [F,B,]3 [F,A,]3 | [D,C][D,A,][D,A,] [D,A,][D,A,]D, | G,3 G,3 | C,C,C, C,C,B,, | A,,3 B,,3 | %14
 C,D,C, [C,G,][C,G,][C,B,] | [F,A,C]6 | [F,CF]3 [F,A,]3 | [F,F]3 [F,C]3 | %18
 [C,C][C,C][C,C] [C,B,]2 [C,B,] | [F,A,]3 [F,C]3 | [B,,B,]3 [D,B,]3 | [F,A,F]3 [F,CF]3 | %22
 [G,CE][G,C][G,C] [G,DF]2[K:bass] [G,=B,] | [C,C]6 | [F,CF][F,B,E][F,A,] [F,F]2 [F,F] | %25
 [F,F]3 [F,C]3 | [C,C][C,C][C,C] [C,B,]2 [C,C] | [F,B,]3 [F,A,]3 | [B,,B,]3 [D,B,]3 | [F,A,]3 F,3 | %30
 C,C,C, [C,G,][C,G,][C,B,] | [F,A,]6 |] %32
V:3
 x6 | x6 | x6 | x6 | x6 | x6 | x6 | x6 | x6 | x6 | x6 | x6 | x6 | x6 | x6 | x6 | x6 | x6 | x6 | %19
 x6 | x6 | x6 | z EE z2 D | x6 | x6 | x6 | x6 | x6 | x6 | x6 | x6 | x6 |] %32

